src/components/Icon/utils/svgsOptimized/people.svg

<svg width="24" height="24" viewBox="0 0 24 24"  xmlns="http://www.w3.org/2000/svg">
<path d="M8.995 5.25C7.062 5.25 5.495 6.817 5.495 8.75C5.495 10.683 7.062 12.25 8.995 12.25C10.928 12.25 12.495 10.683 12.495 8.75C12.495 6.817 10.928 5.25 8.995 5.25Z" />
<path d="M8.995 13.25C8.44626 13.25 7.913 13.293 7.40649 13.3811C7.39913 13.3824 7.39179 13.3838 7.38446 13.3853C5.20497 13.8318 3.245 15.2696 3.245 17.33C3.245 18.0603 3.80887 18.75 4.615 18.75H13.365C14.1736 18.75 14.745 18.0684 14.745 17.33C14.745 15.2808 12.7867 13.8321 10.6055 13.3853C10.5973 13.3836 10.5891 13.382 10.5808 13.3806C10.0673 13.2932 9.54513 13.25 8.995 13.25Z" />
<path d="M14.855 13.25C14.5546 13.25 14.2833 13.4292 14.1653 13.7054C14.0473 13.9816 14.1055 14.3016 14.3131 14.5185C15.0858 15.326 15.505 16.2955 15.505 17.33C15.505 17.4933 15.4839 17.6567 15.4436 17.8338C15.3931 18.0562 15.4465 18.2896 15.5888 18.4679C15.7312 18.6462 15.9469 18.75 16.175 18.75H19.385C20.1911 18.75 20.755 18.0603 20.755 17.33C20.755 15.2696 18.795 13.8318 16.6155 13.3853L16.6021 13.3826L16.5935 13.3811C16.087 13.293 15.5537 13.25 15.005 13.25H14.855Z" />
<path d="M14.995 5.25C14.256 5.25 13.58 5.48022 13.0225 5.86033C12.7097 6.07361 12.6049 6.48659 12.7781 6.82323C13.0755 7.40095 13.245 8.05369 13.245 8.75C13.245 9.44631 13.0755 10.099 12.7781 10.6768C12.6289 10.9667 12.6841 11.3198 12.9147 11.5503L12.9247 11.5603C12.9577 11.5934 12.9938 11.6233 13.0325 11.6497C13.5965 12.0342 14.2736 12.25 14.995 12.25C16.9292 12.25 18.495 10.6842 18.495 8.75C18.495 6.81579 16.9292 5.25 14.995 5.25Z" />
</svg>

<?xml version="1.0" encoding="utf-8"?><svg width="24" height="24" xmlns="http://www.w3.org/2000/svg" viewBox="0 0 24 24"><path d="M8.995 5.25a3.5 3.5 0 1 0 0 7 3.5 3.5 0 0 0 0-7Zm0 8a9.293 9.293 0 0 0-1.61.135c-2.18.447-4.14 1.885-4.14 3.945 0 .73.564 1.42 1.37 1.42h8.75c.809 0 1.38-.682 1.38-1.42 0-2.05-1.958-3.498-4.14-3.945a9.38 9.38 0 0 0-1.61-.135Zm5.86 0a.75.75 0 0 0-.542 1.268c.773.808 1.192 1.777 1.192 2.812 0 .163-.021.327-.061.504a.75.75 0 0 0 .731.916h3.21c.806 0 1.37-.69 1.37-1.42 0-2.06-1.96-3.498-4.14-3.945l-.013-.002-.009-.002a9.293 9.293 0 0 0-1.588-.131h-.15Z"/><path d="M14.995 5.25c-.739 0-1.415.23-1.972.61a.75.75 0 0 0-.245.963 4.2 4.2 0 0 1 0 3.854.75.75 0 0 0 .137.873l.01.01a.836.836 0 0 0 .107.09 3.47 3.47 0 0 0 1.963.6c1.934 0 3.5-1.566 3.5-3.5s-1.566-3.5-3.5-3.5Z"/></svg>
